X:166
T:Wedding
Z: id:dc-jig-142
M:6/8
L:1/8
K:G Major
EF|G2B, G,A,B,|G,B,D G2E|EB,E G2A|BGE EBA|!
G2B, G,A,B,|G,B,D G2E|DA,D F2d|AFD D:|!
EF|GAG GFG|ABA AGA|BGB GBc|def g2e|!
ded dcB|cdc cAG|FGA BAG|FGE D:|!
K:D Major
Bc|dce dce|dAF G2E|EB,E G2A|BGE EBc|!
dce dce|dAF G2E|DA,D F2d|AFD D:|!